X:167
T:Peeler's Jacket
M:C
L:1/8
K:G Major
GF|G2BG DGBG|FGAB c2Bc|dggf d2eg|fdcA BG:|!
Bd|g2gf d2ef|gfga bgaf|gagf d2eg|fdcA BG:|!
